X:1
T:Title
L:1/8
M:4/4
I:linebreak $
K:D
V:1 treble nm="Voice" snm="Voice"
V:1
 ag | fd- d2 d3 c2 | defg a2 gf | e=c- c2 c3 B | =cdef =g2 ag | fd- d2 d3 A2 |$ defg a2 A2 | %7
 ABcd egfe | d2 e4 :: (3A,B,C | D2 D2 F2 A2 | dcde fedB |$ A2 A2 c2 e2 | a2 a2 d'2 D2- | %14
 D2 D2 F2 A2 | dcde fedB | Acef gecA | d2 d4 :| %18
